assets/img/captree/eytzinger.svg

<?xml version="1.0" encoding="UTF-8"?>
<!DOCTYPE svg  PUBLIC '-//W3C//DTD SVG 1.1//EN'  'http://www.w3.org/Graphics/SVG/1.1/DTD/svg11.dtd'>
<!-- Generated by graphviz version 2.43.0 (0)
 -->
<!-- Title: g Pages: 1 -->
<svg width="368pt" height="297pt" viewBox="0 0 368 297" xmlns="http://www.w3.org/2000/svg">
 <g id="graph0" class="graph" transform="scale(1) translate(4 293)">
  <title>g</title>
  <!-- x0 -->
  <g id="node1" class="node">
   <title>x0</title>
   <text x="180" y="-267.2" font-family="system-ui,sans-serif" font-size="16" text-anchor="middle">0</text>
  </g>
  <!-- x1 -->
  <g id="node2" class="node">
   <title>x1</title>
   <text x="144" y="-195.2" font-family="system-ui,sans-serif" font-size="16" text-anchor="middle">1</text>
  </g>
  <!-- x0&#45;&gt;x1 -->
  <g id="edge1" class="edge">
   <title>x0-&gt;x1</title>
   <path d="m171.1-252.7c-4.1 7.97-9.05 17.6-13.59 26.44" fill="none" stroke="#000"/>
   <polygon points="160.48 -224.4 152.8 -217.1 154.26 -227.6" stroke="#000"/>
  </g>
  <!-- x2 -->
  <g id="node3" class="node">
   <title>x2</title>
   <text x="216" y="-195.2" font-family="system-ui,sans-serif" font-size="16" text-anchor="middle">2</text>
  </g>
  <!-- x0&#45;&gt;x2 -->
  <g id="edge2" class="edge">
   <title>x0-&gt;x2</title>
   <path d="m188.9-252.7c4.1 7.97 9.05 17.6 13.59 26.44" fill="none" stroke="#000"/>
   <polygon points="205.74 -227.6 207.2 -217.1 199.52 -224.4" stroke="#000"/>
  </g>
  <!-- x3 -->
  <g id="node4" class="node">
   <title>x3</title>
   <text x="72" y="-123.2" font-family="system-ui,sans-serif" font-size="16" text-anchor="middle">3</text>
  </g>
  <!-- x1&#45;&gt;x3 -->
  <g id="edge3" class="edge">
   <title>x1-&gt;x3</title>
   <path d="m126.2-180.7c-8.8 8.56-19.58 19.04-29.2 28.4" fill="none" stroke="#000"/>
   <polygon points="99.2 -149.57 89.59 -145.1 94.32 -154.58" stroke="#000"/>
  </g>
  <!-- x4 -->
  <g id="node5" class="node">
   <title>x4</title>
   <text x="144" y="-123.2" font-family="system-ui,sans-serif" font-size="16" text-anchor="middle">4</text>
  </g>
  <!-- x1&#45;&gt;x4 -->
  <g id="edge4" class="edge">
   <title>x1-&gt;x4</title>
   <path d="m144-180.7v25.59" fill="none" stroke="#000"/>
   <polygon points="147.5 -155.1 144 -145.1 140.5 -155.1" stroke="#000"/>
  </g>
  <!-- x5 -->
  <g id="node6" class="node">
   <title>x5</title>
   <text x="216" y="-123.2" font-family="system-ui,sans-serif" font-size="16" text-anchor="middle">5</text>
  </g>
  <!-- x2&#45;&gt;x5 -->
  <g id="edge5" class="edge">
   <title>x2-&gt;x5</title>
   <path d="m216-180.7v25.59" fill="none" stroke="#000"/>
   <polygon points="219.5 -155.1 216 -145.1 212.5 -155.1" stroke="#000"/>
  </g>
  <!-- x6 -->
  <g id="node7" class="node">
   <title>x6</title>
   <text x="288" y="-123.2" font-family="system-ui,sans-serif" font-size="16" text-anchor="middle">6</text>
  </g>
  <!-- x2&#45;&gt;x6 -->
  <g id="edge6" class="edge">
   <title>x2-&gt;x6</title>
   <path d="m233.8-180.7c8.8 8.56 19.58 19.04 29.2 28.4" fill="none" stroke="#000"/>
   <polygon points="265.68 -154.58 270.41 -145.1 260.8 -149.57" stroke="#000"/>
  </g>
  <!-- y -->
  <g id="node8" class="node">
   <title>y</title>
   <polygon points="0 -36.5 0 -72.5 360 -72.5 360 -36.5" fill="none" stroke="#000"/>
   <text x="26" y="-50.7" font-family="system-ui,sans-serif" font-size="16" text-anchor="middle">0</text>
   <polyline points="52 -36.5 52 -72.5" fill="none" stroke="#000"/>
   <text x="76.5" y="-50.7" font-family="system-ui,sans-serif" font-size="16" text-anchor="middle">1</text>
   <polyline points="101 -36.5 101 -72.5" fill="none" stroke="#000"/>
   <text x="126.5" y="-50.7" font-family="system-ui,sans-serif" font-size="16" text-anchor="middle">2</text>
   <polyline points="152 -36.5 152 -72.5" fill="none" stroke="#000"/>
   <text x="178" y="-50.7" font-family="system-ui,sans-serif" font-size="16" text-anchor="middle">3</text>
   <polyline points="204 -36.5 204 -72.5" fill="none" stroke="#000"/>
   <text x="230" y="-50.7" font-family="system-ui,sans-serif" font-size="16" text-anchor="middle">4</text>
   <polyline points="256 -36.5 256 -72.5" fill="none" stroke="#000"/>
   <text x="282" y="-50.7" font-family="system-ui,sans-serif" font-size="16" text-anchor="middle">5</text>
   <polyline points="308 -36.5 308 -72.5" fill="none" stroke="#000"/>
   <text x="334" y="-50.7" font-family="system-ui,sans-serif" font-size="16" text-anchor="middle">6</text>
  </g>
  <!-- x3&#45;&gt;y -->
  <!-- x6&#45;&gt;y -->
  <!-- y&#45;&gt;y -->
  <g id="edge9" class="edge">
   <title>y:n-&gt;y:n</title>
   <path d="m26-72.5c-9-12.5-9-36.5 25-36.5 26.83 0 32.49 14.94 29.26 27.39" fill="none" stroke="#000"/>
   <polygon points="83.41 -80.08 76 -72.5 77.06 -83.04" stroke="#000"/>
  </g>
  <!-- y&#45;&gt;y -->
  <g id="edge10" class="edge">
   <title>y:n-&gt;y:n</title>
   <path d="m26-72.5c-9-12.5-9-36.5 50-36.5 46.09 0 56.18 14.65 54.09 27.02" fill="none" stroke="#000"/>
   <polygon points="133.18 -80.3 126 -72.5 126.75 -83.07" stroke="#000"/>
  </g>
  <!-- y&#45;&gt;y -->
  <g id="edge11" class="edge">
   <title>y:s-&gt;y:s</title>
   <path d="m76-36.5c-9 12.5-9 36.5 51 36.5 46.88 0 57.13-14.65 55.08-27.02" fill="none" stroke="#000"/>
   <polygon points="178.74 -25.93 178 -36.5 185.17 -28.7" stroke="#000"/>
  </g>
  <!-- y&#45;&gt;y -->
  <g id="edge12" class="edge">
   <title>y:s-&gt;y:s</title>
   <path d="m76-36.5c-9 12.5-9 36.5 77 36.5 67.19 0 81.88-14.65 80.81-27.02" fill="none" stroke="#000"/>
   <polygon points="230.48 -25.92 230 -36.5 236.97 -28.52" stroke="#000"/>
  </g>
  <!-- y&#45;&gt;y -->
  <g id="edge13" class="edge">
   <title>y:n-&gt;y:n</title>
   <path d="m126-72.5c-9-12.5-9-36.5 78-36.5 67.97 0 82.84 14.65 81.8 27.02" fill="none" stroke="#000"/>
   <polygon points="288.97 -80.48 282 -72.5 282.47 -83.08" stroke="#000"/>
  </g>
  <!-- y&#45;&gt;y -->
  <g id="edge14" class="edge">
   <title>y:n-&gt;y:n</title>
   <path d="m126-72.5c-9-12.5-9-36.5 104-36.5 88.28 0 107.59 14.65 107.53 27.02" fill="none" stroke="#000"/>
   <polygon points="340.77 -80.65 334 -72.5 334.2 -83.09" stroke="#000"/>
  </g>
 </g>
</svg>

<?xml version="1.0" encoding="UTF-8" standalone="no"?>
<!DOCTYPE svg PUBLIC "-//W3C//DTD SVG 1.1//EN"
 "http://www.w3.org/Graphics/SVG/1.1/DTD/svg11.dtd">
<!-- Generated by graphviz version 2.43.0 (0)
 -->
<!-- Title: g Pages: 1 -->
<svg width="368pt" height="297pt"
 viewBox="0.00 0.00 368.00 297.00" xmlns="http://www.w3.org/2000/svg" xmlns:xlink="http://www.w3.org/1999/xlink">
<g id="graph0" class="graph" transform="scale(1 1) rotate(0) translate(4 293)">
<title>g</title>
<!-- x0 -->
<g id="node1" class="node">
<title>x0</title>
<text text-anchor="middle" x="180" y="-267.2" font-family="system-ui,sans-serif" font-size="16.00">0</text>
</g>
<!-- x1 -->
<g id="node2" class="node">
<title>x1</title>
<text text-anchor="middle" x="144" y="-195.2" font-family="system-ui,sans-serif" font-size="16.00">1</text>
</g>
<!-- x0&#45;&gt;x1 -->
<g id="edge1" class="edge">
<title>x0&#45;&gt;x1</title>
<path fill="none" stroke="black" d="M171.1,-252.7C167,-244.73 162.05,-235.1 157.51,-226.26"/>
<polygon fill="black" stroke="black" points="160.48,-224.4 152.8,-217.1 154.26,-227.6 160.48,-224.4"/>
</g>
<!-- x2 -->
<g id="node3" class="node">
<title>x2</title>
<text text-anchor="middle" x="216" y="-195.2" font-family="system-ui,sans-serif" font-size="16.00">2</text>
</g>
<!-- x0&#45;&gt;x2 -->
<g id="edge2" class="edge">
<title>x0&#45;&gt;x2</title>
<path fill="none" stroke="black" d="M188.9,-252.7C193,-244.73 197.95,-235.1 202.49,-226.26"/>
<polygon fill="black" stroke="black" points="205.74,-227.6 207.2,-217.1 199.52,-224.4 205.74,-227.6"/>
</g>
<!-- x3 -->
<g id="node4" class="node">
<title>x3</title>
<text text-anchor="middle" x="72" y="-123.2" font-family="system-ui,sans-serif" font-size="16.00">3</text>
</g>
<!-- x1&#45;&gt;x3 -->
<g id="edge3" class="edge">
<title>x1&#45;&gt;x3</title>
<path fill="none" stroke="black" d="M126.2,-180.7C117.4,-172.14 106.62,-161.66 97,-152.3"/>
<polygon fill="black" stroke="black" points="99.2,-149.57 89.59,-145.1 94.32,-154.58 99.2,-149.57"/>
</g>
<!-- x4 -->
<g id="node5" class="node">
<title>x4</title>
<text text-anchor="middle" x="144" y="-123.2" font-family="system-ui,sans-serif" font-size="16.00">4</text>
</g>
<!-- x1&#45;&gt;x4 -->
<g id="edge4" class="edge">
<title>x1&#45;&gt;x4</title>
<path fill="none" stroke="black" d="M144,-180.7C144,-172.98 144,-163.71 144,-155.11"/>
<polygon fill="black" stroke="black" points="147.5,-155.1 144,-145.1 140.5,-155.1 147.5,-155.1"/>
</g>
<!-- x5 -->
<g id="node6" class="node">
<title>x5</title>
<text text-anchor="middle" x="216" y="-123.2" font-family="system-ui,sans-serif" font-size="16.00">5</text>
</g>
<!-- x2&#45;&gt;x5 -->
<g id="edge5" class="edge">
<title>x2&#45;&gt;x5</title>
<path fill="none" stroke="black" d="M216,-180.7C216,-172.98 216,-163.71 216,-155.11"/>
<polygon fill="black" stroke="black" points="219.5,-155.1 216,-145.1 212.5,-155.1 219.5,-155.1"/>
</g>
<!-- x6 -->
<g id="node7" class="node">
<title>x6</title>
<text text-anchor="middle" x="288" y="-123.2" font-family="system-ui,sans-serif" font-size="16.00">6</text>
</g>
<!-- x2&#45;&gt;x6 -->
<g id="edge6" class="edge">
<title>x2&#45;&gt;x6</title>
<path fill="none" stroke="black" d="M233.8,-180.7C242.6,-172.14 253.38,-161.66 263,-152.3"/>
<polygon fill="black" stroke="black" points="265.68,-154.58 270.41,-145.1 260.8,-149.57 265.68,-154.58"/>
</g>
<!-- y -->
<g id="node8" class="node">
<title>y</title>
<polygon fill="none" stroke="black" points="0,-36.5 0,-72.5 360,-72.5 360,-36.5 0,-36.5"/>
<text text-anchor="middle" x="26" y="-50.7" font-family="system-ui,sans-serif" font-size="16.00">0</text>
<polyline fill="none" stroke="black" points="52,-36.5 52,-72.5 "/>
<text text-anchor="middle" x="76.5" y="-50.7" font-family="system-ui,sans-serif" font-size="16.00">1</text>
<polyline fill="none" stroke="black" points="101,-36.5 101,-72.5 "/>
<text text-anchor="middle" x="126.5" y="-50.7" font-family="system-ui,sans-serif" font-size="16.00">2</text>
<polyline fill="none" stroke="black" points="152,-36.5 152,-72.5 "/>
<text text-anchor="middle" x="178" y="-50.7" font-family="system-ui,sans-serif" font-size="16.00">3</text>
<polyline fill="none" stroke="black" points="204,-36.5 204,-72.5 "/>
<text text-anchor="middle" x="230" y="-50.7" font-family="system-ui,sans-serif" font-size="16.00">4</text>
<polyline fill="none" stroke="black" points="256,-36.5 256,-72.5 "/>
<text text-anchor="middle" x="282" y="-50.7" font-family="system-ui,sans-serif" font-size="16.00">5</text>
<polyline fill="none" stroke="black" points="308,-36.5 308,-72.5 "/>
<text text-anchor="middle" x="334" y="-50.7" font-family="system-ui,sans-serif" font-size="16.00">6</text>
</g>
<!-- x3&#45;&gt;y -->
<!-- x6&#45;&gt;y -->
<!-- y&#45;&gt;y -->
<g id="edge9" class="edge">
<title>y:n&#45;&gt;y:n</title>
<path fill="none" stroke="black" d="M26,-72.5C17,-85 17,-109 51,-109 77.83,-109 83.49,-94.06 80.26,-81.61"/>
<polygon fill="black" stroke="black" points="83.41,-80.08 76,-72.5 77.06,-83.04 83.41,-80.08"/>
</g>
<!-- y&#45;&gt;y -->
<g id="edge10" class="edge">
<title>y:n&#45;&gt;y:n</title>
<path fill="none" stroke="black" d="M26,-72.5C17,-85 17,-109 76,-109 122.09,-109 132.18,-94.35 130.09,-81.98"/>
<polygon fill="black" stroke="black" points="133.18,-80.3 126,-72.5 126.75,-83.07 133.18,-80.3"/>
</g>
<!-- y&#45;&gt;y -->
<g id="edge11" class="edge">
<title>y:s&#45;&gt;y:s</title>
<path fill="none" stroke="black" d="M76,-36.5C67,-24 67,0 127,0 173.88,0 184.13,-14.65 182.08,-27.02"/>
<polygon fill="black" stroke="black" points="178.74,-25.93 178,-36.5 185.17,-28.7 178.74,-25.93"/>
</g>
<!-- y&#45;&gt;y -->
<g id="edge12" class="edge">
<title>y:s&#45;&gt;y:s</title>
<path fill="none" stroke="black" d="M76,-36.5C67,-24 67,0 153,0 220.19,0 234.88,-14.65 233.81,-27.02"/>
<polygon fill="black" stroke="black" points="230.48,-25.92 230,-36.5 236.97,-28.52 230.48,-25.92"/>
</g>
<!-- y&#45;&gt;y -->
<g id="edge13" class="edge">
<title>y:n&#45;&gt;y:n</title>
<path fill="none" stroke="black" d="M126,-72.5C117,-85 117,-109 204,-109 271.97,-109 286.84,-94.35 285.8,-81.98"/>
<polygon fill="black" stroke="black" points="288.97,-80.48 282,-72.5 282.47,-83.08 288.97,-80.48"/>
</g>
<!-- y&#45;&gt;y -->
<g id="edge14" class="edge">
<title>y:n&#45;&gt;y:n</title>
<path fill="none" stroke="black" d="M126,-72.5C117,-85 117,-109 230,-109 318.28,-109 337.59,-94.35 337.53,-81.98"/>
<polygon fill="black" stroke="black" points="340.77,-80.65 334,-72.5 334.2,-83.09 340.77,-80.65"/>
</g>
</g>
</svg>
